X:12468
T:Lord Inchquin
C:Turlough O'Carolan
M:3/4
L:1/4
R:Waltz
G:Couples Dances ~ Waltzes ~ LRB
H:From the Lamprey River Band Tunebook, a part of the NH Country Dance website.
H:Look for more tunes (New England, Canadian, Swedish) plus resources for 
H:abc notation and New England traditional music and dance; URL below.
U: s = !slide!       % To preserve font, staff layout & other formatting,
U: t = !trill!       % use the file header at the URL below. There are
F:Tunes Home Page - http://nhcountrydance.com/fiddle/the-tunes.html
F:File Header & instructions - http://nhcountrydance.com/fiddle/headers.html
K:D
   A |\
"D" d g/f/ e/f/ | "G" d e/d/ c/B/ | "D" AFA | "D" f2 e |\
"Bm" d e/d/ c/B/ | "D" A A/G/ F | "G" GB/A/ G/F/ | "A" E2a/g/ |
"D" f>ed | "G" dcB | "D" AFA | "D" f2 e |\
"G" d e/d/ c/B/ | "D" A<dF | "A" E>DD | "D" D2 :|
|: A |\
"A" A/B/ c/d/ e | "A" ece  | "D" fdf  | "A" e2A |\
"D" d/e/ f/g/ a | "D" abg  | "Bm" fdf | "A" e2A |
"D" d/e/ f/g/ a | "D" abg  | "Bm" f>g "F#m" e | y"Bm" d2 c/d/ |\
"Em" e>ee | "Bm" ef "E7" d | "A" c>dB | "A" A2 a/g/ |
"D"  f>ed | "G" dcB | "D" AFA | "D" f2  "A" e   |\
"G" d e/d/ c/B/ | "D" A<dF | "A" E>DD | "D" D2 :|

